img/note.svg

<svg width="14" height="19" viewBox="0 0 14 19" fill="none" xmlns="http://www.w3.org/2000/svg">
<path d="M12.0625 0.25H1.9375C0.988281 0.25 0.25 1.02344 0.25 1.9375V18.25L7 14.3125L13.75 18.25V1.9375C13.75 1.02344 12.9766 0.25 12.0625 0.25ZM12.0625 15.332L7 12.3789L1.9375 15.332V2.14844C1.9375 2.04297 2.00781 1.9375 2.14844 1.9375H11.8516C11.957 1.9375 12.0625 2.04297 12.0625 2.14844V15.332Z" fill="#1565D8"/>
</svg>

<svg width="14" height="19" fill="none" xmlns="http://www.w3.org/2000/svg"><path d="M12.063.25H1.937C.989.25.25 1.023.25 1.938V18.25L7 14.312l6.75 3.938V1.937c0-.914-.773-1.687-1.688-1.687Zm0 15.082L7 12.379l-5.063 2.953V2.148c0-.105.07-.21.211-.21h9.704c.105 0 .21.105.21.21v13.184Z" fill="#1565D8"/></svg>
